svg/emoji/sob_line.svg

<?xml version="1.0" encoding="UTF-8"?>
<svg width="24px" height="24px" viewBox="0 0 24 24" version="1.1" xmlns="http://www.w3.org/2000/svg" xmlns:xlink="http://www.w3.org/1999/xlink">
    <title>sob_line</title>
    <g id="Icon" stroke="none" stroke-width="1" fill="none" fill-rule="evenodd">
        <g id="Emoji" transform="translate(-720.000000, 0.000000)">
            <g id="sob_line" transform="translate(720.000000, 0.000000)">
                <path d="M24,0 L24,24 L0,24 L0,0 L24,0 Z M12.5935,23.2578 L12.5819,23.2595 L12.5109,23.295 L12.4919,23.2987 L12.4767,23.295 L12.4057,23.2595 C12.3958,23.2564 12.387,23.259 12.3821,23.2649 L12.378,23.2758 L12.3609,23.7031 L12.3659,23.7235 L12.3769,23.7357 L12.4805,23.8097 L12.4953,23.8136 L12.5071,23.8097 L12.6107,23.7357 L12.6233,23.7197 L12.6267,23.7031 L12.6096,23.2758 C12.6076,23.2657 12.601,23.2593 12.5935,23.2578 Z M12.8584,23.1453 L12.8445,23.1473 L12.6598,23.2397 L12.6499,23.2499 L12.6472,23.2611 L12.6651,23.6906 L12.6699,23.7034 L12.6784,23.7105 L12.8793,23.8032 C12.8914,23.8069 12.9022,23.803 12.9078,23.7952 L12.9118,23.7812 L12.8777,23.1665 C12.8753,23.1546 12.8674,23.147 12.8584,23.1453 Z M12.143,23.1473 C12.1332,23.1424 12.1222,23.1453 12.1156,23.1526 L12.1099,23.1665 L12.0758,23.7812 C12.0751,23.7927 12.0828,23.8019 12.0926,23.8046 L12.1083,23.8032 L12.3092,23.7105 L12.3186,23.7024 L12.3225,23.6906 L12.3404,23.2611 L12.3372,23.2485 L12.3278,23.2397 L12.143,23.1473 Z" id="MingCute" fill-rule="nonzero"></path>
                <path d="M12,4 C7.58172,4 4,7.58172 4,12 C4,14.5264 5.17108,16.7793 7,18.2454 L7,13 C7,12.4477 7.44772,12 8,12 C8.55228,12 9,12.4477 9,13 L9,19.4185 C9.92643,19.7935 10.9391,20 12,20 C13.0609,20 14.0736,19.7935 15,19.4185 L15,13 C15,12.4477 15.4477,12 16,12 C16.5523,12 17,12.4477 17,13 L17,18.2454 C18.8289,16.7793 20,14.5264 20,12 C20,7.58172 16.4183,4 12,4 Z M17,20.6622 C19.989,18.9331 22,15.7014 22,12 C22,6.47715 17.5228,2 12,2 C6.47715,2 2,6.47715 2,12 C2,15.7014 4.01099,18.9331 7,20.6622 L7,21 C7,21.5523 7.44772,22 8,22 C8.37044,22 8.69383,21.7986 8.86663,21.4993 C9.85223,21.8242 10.9056,22 12,22 C13.0944,22 14.1478,21.8242 15.1334,21.4993 C15.3062,21.7986 15.6296,22 16,22 C16.5523,22 17,21.5523 17,21 L17,20.6622 Z M6,9 C6,8.44772 6.44772,8 7,8 L10,8 C10.5523,8 11,8.44772 11,9 C11,9.55228 10.5523,10 10,10 L7,10 C6.44772,10 6,9.55228 6,9 Z M13,9 C13,8.44772 13.4477,8 14,8 L17,8 C17.5523,8 18,8.44772 18,9 C18,9.55228 17.5523,10 17,10 L14,10 C13.4477,10 13,9.55228 13,9 Z" id="形状" fill="#09244B"></path>
            </g>
        </g>
    </g>
</svg>

<svg xmlns="http://www.w3.org/2000/svg" width="24" height="24"><g fill="none" fill-rule="evenodd"><path d="M24 0v24H0V0h24ZM12.594 23.258l-.012.002-.071.035-.02.004-.014-.004-.071-.036c-.01-.003-.019 0-.024.006l-.004.01-.017.428.005.02.01.013.104.074.015.004.012-.004.104-.074.012-.016.004-.017-.017-.427c-.002-.01-.009-.017-.016-.018Zm.264-.113-.014.002-.184.093-.01.01-.003.011.018.43.005.012.008.008.201.092c.012.004.023 0 .029-.008l.004-.014-.034-.614c-.003-.012-.01-.02-.02-.022Zm-.715.002a.023.023 0 0 0-.027.006l-.006.014-.034.614c0 .012.007.02.017.024l.015-.002.201-.093.01-.008.003-.011.018-.43-.003-.012-.01-.01-.184-.092Z"/><path fill="#09244B" d="M12 4a8 8 0 0 0-5 14.245V13a1 1 0 1 1 2 0v6.419c.926.375 1.94.581 3 .581s2.074-.206 3-.581V13a1 1 0 1 1 2 0v5.245A8 8 0 0 0 12 4Zm5 16.662c2.989-1.729 5-4.96 5-8.662 0-5.523-4.477-10-10-10S2 6.477 2 12a9.996 9.996 0 0 0 5 8.662V21a1 1 0 0 0 1.867.5c.985.324 2.039.5 3.133.5a9.992 9.992 0 0 0 3.133-.5A1 1 0 0 0 17 21v-.338ZM6 9a1 1 0 0 1 1-1h3a1 1 0 1 1 0 2H7a1 1 0 0 1-1-1Zm7 0a1 1 0 0 1 1-1h3a1 1 0 1 1 0 2h-3a1 1 0 0 1-1-1Z"/></g></svg>
